X: 28513
T: Munster Buttermilk
R: jig
M: 6/8
K: Gmajor
f|:~g2 g age|d2B BAB|d2B BAB|dBG GBd|
~g2 g age|d2B BAB|dBA GAB|1 ABA GBd:|2 ABA G2 B||
d2e g2a|b2b bag|aba age|gab age|
d2e g2a|b2b bag|age deg|1 aba g2 e:|2 aba g2 f||

